X:225
T:Three Horses
%%VWML:SBG-1-2-496-0
F:http://www.vwml.org/record/SBG/1/2/496
Z:Original Sibelius transcriptions by M. & S. Graebe
M:2/2
K:C
E|G G  A G|GE D E|F F A E|F G A A |A G A B| c3c|c c B A|
AG G G |(A G) A B|c3 c|c c B A |A G G G |AG A B|c3G|c c c c|BG E G|
A G E F |G3z|"Chorus"GF E2|E F G2|AG A/A/B|c3z|c c c c |BA G G|AG EF|G3z|
G2G2|E F G2|A G A G/ G/|AG A G|A2 GF|E/E/ D2C2||

